X:2857
T:Polonäs
T:ur Kumlins notsamling (nr 169)
B:Kumlins notsamling, nr 169
B:http://www.smus.se/earkiv/fmk/browselarge.php?lang=sw&katalogid=Ma+4&bildnr=00037
O:Närke
R:Slängpolska
Z:Nils Liberg
M:3/4
L:1/8
N:Det här verkar vara en variant av visan som börjar "Kärsti du kom du så vele vi svänga" (eller "Kjersti du, kom du, så vela vi svänga")
N:Se även [[Musik/1959|+]]
K:Gm
G>^F G2 Bc | dd c2 d2 | d^f ga bg | g^f/g/ a4 ::
ba/g/ ^f2 g2 | de/d/ c2 d2 | BB cc dd | BA/B/ G4 :|
(:musicend:)
(:music:)
